X:5
T:The Giant's Causeway
R:reel
C:Sean Ryan
B:Sean Ryan's Dream
Z:Paul Stewart Cranford (P.S.C.), <http://www.cranfordpub.com>
L:1/8
Q:333
M:C|
K:G
G2 BG FGAc|BABG cBcA|d^cde fgag|fdcA (3Bcd AF|
G2 BG FGAc|BABG cBcA|d^cde fgag|1fdcA (3Bcd AF:|2fdcA BGBd||
|:g2 bg fgaf|gbag fdcA|(3BAB dB ceag|fgag fdef|
g2 bg fgaf|gbag fdcA|B2 dB ceag|1fdef gdBd:|2fdcA BGAF|]
